apps/24/akonaditray.svg

<?xml version="1.0" encoding="UTF-8" standalone="no"?>
<!-- Created with Inkscape (http://www.inkscape.org/) -->

<svg
   xmlns:dc="http://purl.org/dc/elements/1.1/"
   xmlns:cc="http://creativecommons.org/ns#"
   xmlns:rdf="http://www.w3.org/1999/02/22-rdf-syntax-ns#"
   xmlns:svg="http://www.w3.org/2000/svg"
   xmlns="http://www.w3.org/2000/svg"
   xmlns:sodipodi="http://sodipodi.sourceforge.net/DTD/sodipodi-0.dtd"
   xmlns:inkscape="http://www.inkscape.org/namespaces/inkscape"
   width="24"
   height="24"
   id="svg27665"
   version="1.1"
   inkscape:version="0.48.3.1 r9886"
   sodipodi:docname="akonadiconsole.svg">
  <defs
     id="defs27667" />
  <sodipodi:namedview
     id="base"
     pagecolor="#ffffff"
     bordercolor="#666666"
     borderopacity="1.0"
     inkscape:pageopacity="0.0"
     inkscape:pageshadow="2"
     inkscape:zoom="32"
     inkscape:cx="9.271089"
     inkscape:cy="11.68641"
     inkscape:document-units="px"
     inkscape:current-layer="layer1"
     showgrid="true"
     inkscape:window-width="1920"
     inkscape:window-height="955"
     inkscape:window-x="-10"
     inkscape:window-y="25"
     inkscape:window-maximized="1"
     inkscape:snap-bbox="true"
     inkscape:bbox-paths="true"
     inkscape:bbox-nodes="true"
     inkscape:snap-bbox-edge-midpoints="true"
     inkscape:snap-bbox-midpoints="true"
     inkscape:object-paths="true"
     inkscape:snap-intersection-paths="true"
     inkscape:object-nodes="true"
     inkscape:snap-smooth-nodes="true"
     inkscape:snap-midpoints="true"
     inkscape:snap-object-midpoints="true"
     inkscape:snap-center="true"
     inkscape:snap-global="true"
     showguides="false"
     inkscape:guide-bbox="true"
     fit-margin-top="0"
     fit-margin-left="0"
     fit-margin-right="0"
     fit-margin-bottom="0"
     inkscape:showpageshadow="false">
    <sodipodi:guide
       orientation="0,1"
       position="599.99999,299.99993"
       id="guide3572" />
    <sodipodi:guide
       orientation="1,0"
       position="294.41949,12.121716"
       id="guide3574" />
    <sodipodi:guide
       orientation="0,1"
       position="456.04389,599.99992"
       id="guide3576" />
    <sodipodi:guide
       orientation="0,1"
       position="-2.8882813e-06,-8.4406273e-05"
       id="guide3578" />
    <sodipodi:guide
       orientation="1,0"
       position="-2.8882813e-06,157.58366"
       id="guide3580" />
    <sodipodi:guide
       orientation="1,0"
       position="599.99999,121.21821"
       id="guide3582" />
    <sodipodi:guide
       orientation="0,1"
       position="599.99999,-714.34359"
       id="guide5928" />
    <sodipodi:guide
       orientation="0,1"
       position="599.99999,-414.34359"
       id="guide5930" />
    <sodipodi:guide
       orientation="0,1"
       position="599.99999,-1014.3435"
       id="guide5932" />
    <sodipodi:guide
       orientation="0,1"
       position="451.57029,524.99606"
       id="guide5294" />
    <sodipodi:guide
       orientation="0,1"
       position="451.57029,75.013516"
       id="guide5296" />
    <sodipodi:guide
       orientation="0,1"
       position="496.01499,-931.36409"
       id="guide5413" />
    <sodipodi:guide
       orientation="0,1"
       position="457.34859,-489.34389"
       id="guide5415" />
    <inkscape:grid
       type="xygrid"
       id="grid3070"
       empspacing="5"
       visible="true"
       enabled="true"
       snapvisiblegridlinesonly="true"
       originx="4.3243213e-05px"
       originy="-2.6947047e-05px" />
  </sodipodi:namedview>
  <metadata
     id="metadata27670">
    <rdf:RDF>
      <cc:Work
         rdf:about="">
        <dc:format>image/svg+xml</dc:format>
        <dc:type
           rdf:resource="http://purl.org/dc/dcmitype/StillImage" />
        <dc:title />
      </cc:Work>
    </rdf:RDF>
  </metadata>
  <g
     inkscape:label="Camada 1"
     inkscape:groupmode="layer"
     id="layer1"
     transform="translate(3364.4171,-2092.7186)">
    <path
       inkscape:connector-curvature="0"
       id="path2997"
       d="m -3352.6046,2096.7186 c -0.8054,0.021 -1.6281,0.1902 -2.4063,0.5 l 3.4688,6 0.2812,0.5 5.8438,0 c 0,-1.2288 -0.3231,-2.4359 -0.9375,-3.5 -1.3289,-2.3018 -3.7676,-3.5645 -6.25,-3.5 z m -3.8125,0.062 c -2.4752,1.4291 -4,4.0794 -4,6.9375 l 8,0 -4,-6.9375 z m -4.9375,7.9375 c 0.5049,4.492 4.3106,8 8.9375,8 4.6269,0 8.4326,-3.508 8.9375,-8 l -17.875,0 z"
       style="fill:#27303a;fill-opacity:0.753280819999999968;stroke:none" />
    <path
       style="font-size:medium;font-style:normal;font-variant:normal;font-weight:normal;font-stretch:normal;text-indent:0;text-align:start;text-decoration:none;line-height:normal;letter-spacing:normal;word-spacing:normal;text-transform:none;direction:ltr;block-progression:tb;writing-mode:lr-tb;text-anchor:start;baseline-shift:baseline;color:#000000;fill:#f1f3f5;fill-opacity:0.90288714000000003;fill-rule:nonzero;stroke:none;stroke-width:2;marker:none;visibility:visible;display:inline;overflow:visible;enable-background:accumulate;font-family:Sans;-inkscape-font-specification:Sans"
       d="M 8.46875 2.21875 L 7.3125 2.90625 C 4.5219 4.51745 2.8086 7.45425 2.6875 10.65625 L 1.53125 10.65625 L 1.71875 12.15625 C 2.29905 17.31895 6.6907 21.34375 12 21.34375 C 17.3092 21.34375 21.70095 17.31895 22.28125 12.15625 L 22.4375 10.65625 L 20.9375 10.65625 L 20.3125 10.65625 C 20.2565 9.31155 19.89365 7.9813 19.21875 6.8125 C 17.63915 4.0765 14.74395 2.57925 11.78125 2.65625 C 10.86355 2.68025 9.9424 2.88765 9.0625 3.21875 L 8.46875 2.21875 z M 11.8125 4 C 14.2949 3.9355 16.7336 5.1982 18.0625 7.5 C 18.6769 8.5641 19 9.7712 19 11 L 13.15625 11 L 12.875 10.5 L 9.40625 4.5 C 10.18445 4.1902 11.0071 4.021 11.8125 4 z M 8 4.0625 L 12 11 L 4 11 C 4 8.1419 5.5248 5.4916 8 4.0625 z M 3.0625 12 L 20.9375 12 C 20.4326 16.492 16.6269 20 12 20 C 7.3731 20 3.5674 16.492 3.0625 12 z "
       transform="translate(-3364.4171,2092.7186)"
       id="path2998" />
  </g>
</svg>

<?xml version="1.0" encoding="UTF-8"?>
<svg id="c" width="24" height="24" version="1.1" xmlns="http://www.w3.org/2000/svg" xmlns:cc="http://creativecommons.org/ns#" xmlns:dc="http://purl.org/dc/elements/1.1/" xmlns:rdf="http://www.w3.org/1999/02/22-rdf-syntax-ns#">
	<metadata id="a">
		<rdf:RDF>
			<cc:Work rdf:about="">
				<dc:format>image/svg+xml</dc:format>
				<dc:type rdf:resource="http://purl.org/dc/dcmitype/StillImage"/>
				<dc:title/>
			</cc:Work>
		</rdf:RDF>
	</metadata>
	<defs id="e">
		<style id="current-color-scheme" type="text/css">.ColorScheme-Text {color:#090d11;}.ColorScheme-Background{color:#ffffff;}</style>
	</defs>
	<path id="d" class="ColorScheme-Text" d="m11.812 4c-0.8054 0.021-1.6281 0.1902-2.4063 0.5l3.4688 6 0.2812 0.5h5.8438c0-1.2288-0.3231-2.4359-0.9375-3.5-1.3289-2.3018-3.7676-3.5645-6.25-3.5zm-3.8125 0.062c-2.4752 1.4291-4 4.0794-4 6.9375h8zm-4.9375 7.9375c0.5049 4.492 4.3106 8 8.9375 8s8.4326-3.508 8.9375-8z" style="fill-opacity:.75;fill:currentColor"/>
	<path id="b" class="ColorScheme-Background" d="m8.4687 2.2188-1.1562 0.6875c-2.7906 1.6112-4.5039 4.548-4.625 7.75h-1.1563l0.1875 1.5c0.5803 5.1627 4.972 9.1875 10.281 9.1875 5.3092 0 9.7009-4.0248 10.281-9.1875l0.1563-1.5h-2.125c-0.056-1.3447-0.4189-2.675-1.0938-3.8438-1.5796-2.736-4.4748-4.2332-7.4375-4.1562-0.9177 0.024-1.8388 0.2314-2.7187 0.5625zm3.3438 1.7812c2.4824-0.064 4.9211 1.1982 6.25 3.5 0.6144 1.0641 0.9375 2.2712 0.9375 3.5h-5.8438l-0.2812-0.5-3.4688-6c0.7782-0.3098 1.6009-0.479 2.4063-0.5zm-3.8125 0.062 4 6.9375h-8c0-2.8581 1.5248-5.5084 4-6.9375zm-4.9375 7.9375h17.875c-0.5049 4.492-4.3106 8-8.9375 8s-8.4326-3.508-8.9375-8z" style="fill-opacity:.5;fill:currentColor"/>
</svg>
